@extra/phlat-icons/symbolic-24/optimus-tray-intel.svg

<svg xmlns="http://www.w3.org/2000/svg" version="1.1" viewBox="-4 -4 24 24"><path opacity=".5" fill="#f1f2f2" d="m5 1c-2.216 0-4 1.784-4 4v6c0 2.216 1.784 4 4 4h3.4355c-3.592-3.185-4.9121-7.3496-4.9121-7.3496a0.5 0.5 0 0 1 0.127 -0.5078s3.9771-3.8716 9.2876-5.6446a3.994 3.994 0 0 0 -1.938 -0.498h-6zm9.801 2.752c-4.378 0.922-6.4288 3.7495-6.7248 4.1875 0.0871 0.3074 0.64 2.0895 1.9238 3.9085v-1.848h0.223c-0.5132-1.0684-0.7113-1.8906-0.7113-1.8906a0.5 0.5 0 0 1 0.0899 -0.4121s1.8844-2.4842 5.3324-3.4102a3.983 3.983 0 0 0 -0.133 -0.5351zm0.199 3.3984a3.298 3.298 0 0 0 -1.438 1c0.031 0.1729 0.202 0.9734 0.6 1.8496h0.838v-2.8496z"/><path style="color:#f1f2f2" d="m11 11h1.375l1.125 1.094 1.094-1.094h1.406v1.469l-1.094 1.062 1.094 1.063v1.406h-1.438l-1.062-1.063-1.063 1.063h-1.437v-1.406l1.062-1.063-1.062-1.061z" overflow="visible" fill="#c00"/></svg>

<svg xmlns="http://www.w3.org/2000/svg" viewBox="-4 -4 24 24">
    <path opacity=".5" fill="#f1f2f2" d="M5 1C2.784 1 1 2.784 1 5v6c0 2.216 1.784 4 4 4h3.436c-3.592-3.185-4.913-7.35-4.913-7.35a.5.5 0 0 1 .127-.507s3.978-3.872 9.288-5.645A3.994 3.994 0 0 0 11 1H5zm9.801 2.752c-4.378.922-6.429 3.75-6.725 4.188.087.307.64 2.089 1.924 3.908V10h.223c-.513-1.068-.711-1.89-.711-1.89a.5.5 0 0 1 .09-.413s1.884-2.484 5.332-3.41a3.983 3.983 0 0 0-.133-.535zM15 7.15a3.298 3.298 0 0 0-1.438 1c.031.173.202.974.6 1.85H15V7.15z"/>
    <path d="M11 11h1.375l1.125 1.094L14.594 11H16v1.469l-1.094 1.062L16 14.594V16h-1.438L13.5 14.937 12.437 16H11v-1.406l1.062-1.063L11 12.47z" overflow="visible" fill="#c00" color="#f1f2f2"/>
</svg>
